img/icons/mime/large/gzip.svg

<svg height="145.2" width="144" xmlns="http://www.w3.org/2000/svg" xmlns:xlink="http://www.w3.org/1999/xlink"><linearGradient id="a"><stop offset="0" stop-color="#fbffff" stop-opacity="0"/><stop offset="1" stop-color="#fff"/></linearGradient><linearGradient id="b" gradientTransform="matrix(.79345 0 0 1.071523 -1.413527 -1.740575)" gradientUnits="userSpaceOnUse" x1="78.7" x2="22.4" xlink:href="#a" y1="74.5" y2="11.5"/><linearGradient id="c" gradientTransform="matrix(.67348 0 0 1.262399 -1.413527 -1.740575)" gradientUnits="userSpaceOnUse" x1="157.2" x2="110.2" xlink:href="#a" y1="79.3" y2="16.5"/><g stroke="#000" stroke-linejoin="round"><path d="m74.5 5.8-68.7 17.4.1 90.8v.2h.3l68.1 25.2 64-26.4v-5.3-84.5z" fill="none" stroke-opacity=".5" stroke-width="11.5"/><path d="m138.2 23.2v84.5l-61.8-13.5-2-88.4z" fill="#515151" stroke-linecap="round" stroke-width="6.9"/><path d="m5.7 23.2 68.7-17.4 4.4 91.4-73 17z" fill="#4a494d" stroke-linecap="round" stroke-width="6.9"/><path d="m74.2 44.3 64-21.1-63.8-17.4-68.7 17.4z" fill="#9db8d2" stroke-linecap="round" stroke-width="6.9"/><path d="m138.2 23.2v89.8l-64 26.5v-95.2z" fill="#4b6983" stroke-linecap="round" stroke-width="6.9"/><path d="m74.2 44.3v95.2l-68.4-25.4-.1-90.9z" fill="#7590ae" stroke-linecap="round" stroke-width="6.9"/></g><path d="m74.1 9.4-64.7 16.5v84.5c67.4 26.5 78.6 43.8 61.4-68.5 61-22.5 3.3-32.5 3.3-32.5z" fill="url(#b)"/><path d="m77.8 47v86.4c.2 0 27.1-10.1 39.5-22.8 12.7-10.4 17-31.4 17-31.4v-51.7z" fill="url(#c)" fill-opacity=".8"/><path d="m74.2 44.3v95.2l-68.4-25.4-.1-90.9z" fill="none" stroke="#000" stroke-linecap="round" stroke-linejoin="round" stroke-width="6.9"/><rect fill="#fff" height="43.4" rx="7.4" stroke="#000" stroke-width="3.5" width="102.2" x="21.6" y="66.2"/><path d="m100.4 97.3v4.9h-26.2v-4.9l17.5-18.7v-.2h-17.5v-4.9h26.2v4.9l-17.5 18.7v.2zm-44.6 4.9c-3.8 0-6.8-1.2-8.9-3.7s-3.1-6-3.1-10.7c0-4.6 1-8.2 3.1-10.6 2-2.5 5-3.7 8.9-3.7h15.5v4.9h-13.6c-2.4 0-4.1.8-5.3 2.4s-1.8 3.9-1.8 7c0 3.2.6 5.6 1.7 7.1 1.1 1.6 2.9 2.4 5.4 2.4h7.5v-7.1h-8.1v-4.7h14.2v16.7z"/></svg>

<svg xmlns:svg="http://www.w3.org/2000/svg" xmlns="http://www.w3.org/2000/svg" xmlns:xlink="http://www.w3.org/1999/xlink" height="145.2" width="144" id="svg1" version="1">
  <metadata id="metadata33"/>
  <defs id="defs3">
    <linearGradient id="linearGradient850">
      <stop id="stop851" offset="0" style="stop-color:#fbffff;stop-opacity:0"/>
      <stop id="stop852" offset="1" style="stop-color:#ffffff;stop-opacity:1"/>
    </linearGradient>
    <linearGradient gradientUnits="userSpaceOnUse" gradientTransform="matrix(0.79345,0,0,1.071523,-1.4135274,-1.7405754)" y2="11.5" x2="22.4" y1="74.5" x1="78.7" id="linearGradient859" xlink:href="#linearGradient850"/>
    <linearGradient id="linearGradient839">
      <stop id="stop840" offset="0" style="stop-color:#46a046;stop-opacity:1"/>
      <stop id="stop841" offset="0.4" style="stop-color:#df421e;stop-opacity:1"/>
      <stop id="stop842" offset="0.7" style="stop-color:#ada7c8;stop-opacity:1"/>
      <stop id="stop843" offset="1" style="stop-color:#eed680;stop-opacity:1"/>
    </linearGradient>
    <linearGradient id="linearGradient833">
      <stop id="stop834" offset="0" style="stop-color:#00ff00;stop-opacity:1"/>
      <stop id="stop837" offset="0.3" style="stop-color:#ff0000;stop-opacity:1"/>
      <stop id="stop838" offset="0.8" style="stop-color:#7f8cff;stop-opacity:1"/>
      <stop id="stop835" offset="1" style="stop-color:#ffff00;stop-opacity:1"/>
    </linearGradient>
    <linearGradient gradientUnits="userSpaceOnUse" gradientTransform="matrix(0.67348,0,0,1.262399,-1.4135274,-1.7405754)" y2="16.5" x2="110.2" y1="79.3" x1="157.2" id="linearGradient836" xlink:href="#linearGradient850"/>
    <linearGradient y2="0" x2="0" y1="0.7" x1="0.6" id="linearGradient855" xlink:href="#linearGradient850"/>
    <linearGradient y2="0.3" x2="0.7" y1="0.9" x1="0.4" id="linearGradient853" xlink:href="#linearGradient850"/>
  </defs>
  <path id="path874" d="M74.5 5.8L5.8 23.2 5.9 114 5.9 114 5.9 114.2 6.2 114.2 74.3 139.4 138.3 113 138.3 107.7 138.3 23.2 74.5 5.8z" style="fill:none;font-family:Trek;font-size:40;stroke-linejoin:round;stroke-opacity:0.5;stroke-width:11.5;stroke:#000"/>
  <path id="path633" d="M138.2 23.2L138.2 107.7 76.4 94.2 74.4 5.8 138.2 23.2z" style="fill:#515151;font-size:12;stroke-linecap:round;stroke-linejoin:round;stroke-width:6.9;stroke:#000"/>
  <path id="path631" d="M5.7 23.2L74.4 5.8 78.8 97.2 5.8 114.2 5.7 23.2z" style="fill:#4a494d;font-size:12;stroke-linecap:round;stroke-linejoin:round;stroke-width:6.9;stroke:#000"/>
  <path id="path640" d="M74.2 44.3L138.2 23.2 74.4 5.8 5.7 23.2 74.2 44.3z" style="fill:#9db8d2;font-size:12;stroke-linecap:round;stroke-linejoin:round;stroke-width:6.9;stroke:#000"/>
  <path id="path627" d="M138.2 23.2L138.2 113 74.2 139.5 74.2 44.3 138.2 23.2z" style="fill:#4b6983;font-size:12;stroke-linecap:round;stroke-linejoin:round;stroke-width:6.9;stroke:#000"/>
  <path id="path629" d="M74.2 44.3L74.2 139.5 5.8 114.1 5.7 23.2 74.2 44.3z" style="fill:#7590ae;font-size:12;stroke-linecap:round;stroke-linejoin:round;stroke-width:6.9;stroke:#000"/>
  <path id="path892" d="M74.1 9.4L9.4 25.9 9.4 110.4C76.8 136.9 88 154.2 70.8 41.9 131.8 19.4 74.1 9.4 74.1 9.4z" fill="url(#linearGradient859)"/>
  <path id="path849" d="M77.8 47L77.8 133.4C78 133.4 104.9 123.3 117.3 110.6 130 100.2 134.3 79.2 134.3 79.2L134.3 27.5 77.8 47z" style="fill-opacity:0.8;fill:url(#linearGradient836)"/>
  <path id="path852" d="M74.2 44.3L74.2 139.5 5.8 114.1 5.7 23.2 74.2 44.3z" style="fill:none;font-size:12;stroke-linecap:round;stroke-linejoin:round;stroke-width:6.9;stroke:#000"/>
  <rect rx="7.4" y="66.2" x="21.6" ry="7.4" height="43.4" width="102.2" id="rect853" style="fill:#fff;stroke-width:3.5;stroke:#000"/>
  <path id="path897" d="M100.4 97.3L100.4 102.2 74.2 102.2 74.2 97.3 91.7 78.6 91.7 78.4 74.2 78.4 74.2 73.5 100.4 73.5 100.4 78.4 82.9 97.1 82.9 97.3 100.4 97.3zM55.8 102.2C52 102.2 49 101 46.9 98.5 44.8 96 43.8 92.5 43.8 87.8 43.8 83.2 44.8 79.6 46.9 77.2 48.9 74.7 51.9 73.5 55.8 73.5L71.3 73.5 71.3 78.4 57.7 78.4C55.3 78.4 53.6 79.2 52.4 80.8 51.2 82.4 50.6 84.7 50.6 87.8 50.6 91 51.2 93.4 52.3 94.9 53.4 96.5 55.2 97.3 57.7 97.3L65.2 97.3 65.2 90.2 57.1 90.2 57.1 85.5 71.3 85.5 71.3 102.2 55.8 102.2z" style="font-family:Trek;font-size:40;stroke-width:1"/>
</svg>
